svgs/thin/grip.svg

<svg xmlns="http://www.w3.org/2000/svg" viewBox="0 0 448 512"><!--! Font Awesome Pro 6.4.2 by @fontawesome - https://fontawesome.com License - https://fontawesome.com/license (Commercial License) Copyright 2023 Fonticons, Inc. --><path d="M408 400c13.3 0 24-10.7 24-24l0-48c0-13.3-10.7-24-24-24l-48 0c-13.3 0-24 10.7-24 24l0 48c0 13.3 10.7 24 24 24l48 0zm40-24c0 22.1-17.9 40-40 40l-48 0c-22.1 0-40-17.9-40-40l0-48c0-22.1 17.9-40 40-40l48 0c22.1 0 40 17.9 40 40l0 48zM408 208c13.3 0 24-10.7 24-24l0-48c0-13.3-10.7-24-24-24l-48 0c-13.3 0-24 10.7-24 24l0 48c0 13.3 10.7 24 24 24l48 0zm40-24c0 22.1-17.9 40-40 40l-48 0c-22.1 0-40-17.9-40-40l0-48c0-22.1 17.9-40 40-40l48 0c22.1 0 40 17.9 40 40l0 48zM200 400l48 0c13.3 0 24-10.7 24-24l0-48c0-13.3-10.7-24-24-24l-48 0c-13.3 0-24 10.7-24 24l0 48c0 13.3 10.7 24 24 24zm48 16l-48 0c-22.1 0-40-17.9-40-40l0-48c0-22.1 17.9-40 40-40l48 0c22.1 0 40 17.9 40 40l0 48c0 22.1-17.9 40-40 40zm0-208c13.3 0 24-10.7 24-24l0-48c0-13.3-10.7-24-24-24l-48 0c-13.3 0-24 10.7-24 24l0 48c0 13.3 10.7 24 24 24l48 0zm40-24c0 22.1-17.9 40-40 40l-48 0c-22.1 0-40-17.9-40-40l0-48c0-22.1 17.9-40 40-40l48 0c22.1 0 40 17.9 40 40l0 48zM40 400l48 0c13.3 0 24-10.7 24-24l0-48c0-13.3-10.7-24-24-24l-48 0c-13.3 0-24 10.7-24 24l0 48c0 13.3 10.7 24 24 24zm48 16l-48 0c-22.1 0-40-17.9-40-40l0-48c0-22.1 17.9-40 40-40l48 0c22.1 0 40 17.9 40 40l0 48c0 22.1-17.9 40-40 40zm0-208c13.3 0 24-10.7 24-24l0-48c0-13.3-10.7-24-24-24l-48 0c-13.3 0-24 10.7-24 24l0 48c0 13.3 10.7 24 24 24l48 0zm40-24c0 22.1-17.9 40-40 40l-48 0c-22.1 0-40-17.9-40-40l0-48c0-22.1 17.9-40 40-40l48 0c22.1 0 40 17.9 40 40l0 48z"/></svg>

<svg xmlns="http://www.w3.org/2000/svg" viewBox="0 0 448 512"><!--! Font Awesome Pro 6.1.1 by @fontawesome - https://fontawesome.com License - https://fontawesome.com/license (Commercial License) Copyright 2022 Fonticons, Inc. --><path d="M448 376C448 398.1 430.1 416 408 416H360C337.9 416 320 398.1 320 376V328C320 305.9 337.9 288 360 288H408C430.1 288 448 305.9 448 328V376zM432 376V328C432 314.7 421.3 304 408 304H360C346.7 304 336 314.7 336 328V376C336 389.3 346.7 400 360 400H408C421.3 400 432 389.3 432 376zM448 184C448 206.1 430.1 224 408 224H360C337.9 224 320 206.1 320 184V136C320 113.9 337.9 96 360 96H408C430.1 96 448 113.9 448 136V184zM432 184V136C432 122.7 421.3 112 408 112H360C346.7 112 336 122.7 336 136V184C336 197.3 346.7 208 360 208H408C421.3 208 432 197.3 432 184zM200 416C177.9 416 160 398.1 160 376V328C160 305.9 177.9 288 200 288H248C270.1 288 288 305.9 288 328V376C288 398.1 270.1 416 248 416H200zM200 400H248C261.3 400 272 389.3 272 376V328C272 314.7 261.3 304 248 304H200C186.7 304 176 314.7 176 328V376C176 389.3 186.7 400 200 400zM288 184C288 206.1 270.1 224 248 224H200C177.9 224 160 206.1 160 184V136C160 113.9 177.9 96 200 96H248C270.1 96 288 113.9 288 136V184zM272 184V136C272 122.7 261.3 112 248 112H200C186.7 112 176 122.7 176 136V184C176 197.3 186.7 208 200 208H248C261.3 208 272 197.3 272 184zM40 416C17.91 416 0 398.1 0 376V328C0 305.9 17.91 288 40 288H88C110.1 288 128 305.9 128 328V376C128 398.1 110.1 416 88 416H40zM40 400H88C101.3 400 112 389.3 112 376V328C112 314.7 101.3 304 88 304H40C26.75 304 16 314.7 16 328V376C16 389.3 26.75 400 40 400zM128 184C128 206.1 110.1 224 88 224H40C17.91 224 0 206.1 0 184V136C0 113.9 17.91 96 40 96H88C110.1 96 128 113.9 128 136V184zM112 184V136C112 122.7 101.3 112 88 112H40C26.75 112 16 122.7 16 136V184C16 197.3 26.75 208 40 208H88C101.3 208 112 197.3 112 184z"/></svg>
